X: 30501
T: Olive O'Mahoney's
R: jig
M: 6/8
K: Gminor
|:zD|GAB A2 B|GAB c2 c|d2 d cdB|Adc BAB|
GAB A2 B|GAB c2 c|d2 d cdB|AGF G:|
|:AB|:c2 c c BA|c2 c c BA|c2 c c BA|ABA GAB|
c2 c c BA|c2 c c BA|dAd cdB|AGF G:|

